X: 137021
T: The RAKES OF KILDARE
Q: "Irish Jig."
R: Jig.
%R: jig
B: James Kerr "Merry Melodies" v.1 p.37 s.0 #21
Z: 2016 John Chambers <jc:trillian.mit.edu>
M: 6/8
L: 1/8
K: Am
uE |\
EAA A^GA | Bcd ue2u^f | g^fg ege | dBG uG2uA |\
EAA A^GA | Bcd ue2u^f | g^fe dBG | A3 A2 :|\
ua |\
aea aea | aea ub2ua | g^fg ege |
dBG G2ua |\
aea aea | aea b2a | g^fe dBG | A3 A2 ua |\
aea aea | aea b2a | g^fg ege | dBg G2uA |\
EAA A^GA | Bcd e2^f | g^fe dBG | A3 A2 |]

%%sep 1 1 500
%%sep 1 1 500

